X:1
T:Bangladesh, 12.11.12.11.12.11
T:Bangladesh, 12.11.12.11.12.11
T:Tullius Clinton O’Kane, 1880
T:Public Domain Courtesy of the Cyber Hymnal™
C:Tullius Clinton O’Kane, 1880
Z:Public Domain
Z:Courtesy of the Cyber Hymnal™
%%score ( 1 2 ) ( 3 4 )
L:1/8
Q:1/4=110
M:3/4
K:Bb
V:1 treble 
V:2 treble 
V:3 bass 
V:4 bass 
V:1
 [DF]>[DF] | [DF]4 [DB]>[Ec] | [Fd]3 [Fc] [FB]2 | [Ec]2 [GB]2 [EG]2 | [DF]4 [DF]2 | %5
 [EG]3 [FA] [GB]2 | [FB]2 [EA]2 [DB]2 | [Fd]3 [Fc] [=EB]2 | [Fc]4 F>[EF] | [DF]3 [EG] [CA]2 | %10
 [DB]2 [EA]2 [EB]2 | [Fc]2 [FB]2 [Fc]2 | [Fd]4 [Fd]2 | [Ge]3 [Fd] [Ec]2 | [Dd]3 [Fc] [FB]2 | %15
 [Ec]2 [DB]2 A2 | [DB]4 [CA]>[DB] | [Fc]2 [Fc]2 [Fc]2 | [Fc]4 [FB]>[Fc] | [Fd]2 [Fd]2 [Fd]2 | %20
 [Fd]4 [Fd]2 | [Ge]3 [Fd] [Ec]2 | [Dd]3 [Fc] [FB]2 | [Gc]2 [FB]2 [EA]2 | [DB]4 |] %25
V:2
 x2 | x6 | x6 | x6 | x6 | x6 | x6 | x6 | x4 F3/2 x/ | x6 | x6 | x6 | x6 | x6 | x6 | x4 (CE) | x6 | %17
 x6 | x6 | x6 | x6 | x6 | x6 | x6 | x4 |] %25
V:3
 [B,,B,]>[B,,B,] | [B,,B,]4 [B,,B,]>[B,,B,] | [B,,B,]3 [C,A,] [D,B,]2 | [E,G,]2 [E,B,]2 [E,B,]2 | %4
 [B,,B,]4 [B,,B,]2 | [E,B,]3 [E,B,] [E,B,]2 | [D,B,]2 [C,F,]2 [B,,B,]2 | B,3 [A,C] [G,C]2 | %8
 A,4 [D,B,]>[C,A,] | [B,,B,]3 [B,,B,] [B,,B,]2 | [B,,B,]2 [C,F,]2 [D,B,]2 | %11
 [F,A,]2 [F,G,]2 [F,A,]2 | B,4 B,2 | [E,B,]3 [E,B,] [E,G,]2 | [B,,F,]3 [C,A,] [D,B,]2 | %15
 [E,G,]2 F,2 F,2 | [B,,F,]4 F,>F, | [F,A,]2 [A,C]2 [CE]2 | A,4 [D,B,]>[C,A,] | %19
 [B,,B,]2 [D,B,]2 [F,B,]2 | B,4 B,2 | [E,B,]3 [E,B,] [E,G,]2 | [B,,F,]3 [C,A,] [D,B,]2 | %23
 [E,E]2 [F,D]2 [F,C]2 | [B,,B,]4 |] %25
V:4
 x2 | x6 | x6 | x6 | x6 | x6 | x6 | B,3 x3 | (F,3 E,) x2 | x6 | x6 | x6 | B,4 B,2 | x6 | x6 | %15
 x2 F,2 F,2 | x4 F,>F, | x6 | (F,3 E,) x2 | x6 | B,4 B,2 | x6 | x6 | x6 | x4 |] %25

